X:210
T: Die beiden Hasen (3-55), S. 144
N: K1185
O: Luxemburg
S: KINTZELE, Guillaume: An der Ucht, Bd. 3 Luxemburg 1928]
N: in der Quelle mit einer 2. Stimme versehen
R: Scherz-, Jagdlied]
M: 3/4
L: 1/8
K: F
 | CCF2A2 | AGGFG2 |
CEG2B2 | B2A2z2 |
cBA2c2 | dcBAB2 |
BAG2B2 | cBAGA2 |
FAc2AF | G2F2z2

@@@ Tune index: 8264
